RestoDelMundo/Paises Bajos/Otras Categorias/Maastricht Vv.svg

<svg xmlns="http://www.w3.org/2000/svg" viewBox="0 0 612 792"><path fill="#fff" d="m346.47 373.747 63.906-165.011 63.901 165.011h56.519l65.644-169.506h-72.686l-1.216 4.165-20.004 68.611-21.215-72.776H339.426l-1.214 4.165-20.001 68.617-21.215-72.782h-72.691l65.645 169.506Z"/><path fill="#fff" d="m454.977 389.56-44.605-131.733-44.599 131.733H234.08l105.536 79.415-39.415 120.318 110.174-68.596 110.174 68.598-39.416-120.32 105.54-79.415ZM215.008 204.561h-67.706l-18.916 65.875-17.301-65.875H42.634l-27.43 169.505h67.542l6.022-60.578 18.612 60.578h41.998l20.269-62.853 5.63 62.853h67.613Z"/><path fill="#d3b21b" d="m410.376 513.885-99.724 62.09 35.75-109.131-95.018-71.501h118.539l40.453-119.484 40.453 119.484h118.539l-95.018 71.501 35.75 109.131z"/><path d="M22 368.284h55.51l6.704-67.448c.626-6.284 1.045-12.778 1.465-19.06h1.883c.42 6.699 1.888 12.983 3.563 19.69l20.528 66.818h33.514l22.831-70.799c1.678-5.029 2.724-10.473 3.771-15.71h1.048l7.749 86.508h55.51L210.1 210.344h-58.441l-17.805 62.001c-1.885 6.707-2.928 14.036-3.978 20.948h-1.465l-21.786-82.949H47.557zM343.766 210.025l-20.943 71.849c-2.306 7.749-3.982 15.501-3.982 23.458h-1.258c0-7.957-1.675-15.709-3.981-23.458l-20.946-71.849h-59.909l61.164 157.939h48.598l61.166-157.939zM528.092 210.025l-20.948 71.849c-2.303 7.749-3.979 15.501-3.979 23.458h-1.258c0-7.957-1.676-15.709-3.979-23.458l-20.945-71.849h-59.906l61.164 157.939h48.595L588 210.025z"/></svg>

<svg enable-background="new 0 0 612 792" viewBox="0 0 612 792" xmlns="http://www.w3.org/2000/svg"><path d="M 346.47 373.747 L 410.376 208.736 L 474.277 373.747 L 530.796 373.747 L 596.44 204.241 L 523.754 204.241 L 522.538 208.406 L 502.534 277.017 L 481.319 204.241 L 412.116 204.241 L 339.426 204.241 L 338.212 208.406 L 318.211 277.023 L 296.996 204.241 L 224.305 204.241 L 289.95 373.747 Z" fill="#fff"/><path d="M 454.977 389.56 L 410.372 257.827 L 365.773 389.56 L 234.08 389.56 L 339.616 468.975 L 300.201 589.293 L 410.375 520.697 L 520.549 589.295 L 481.133 468.975 L 586.673 389.56 Z" fill="#fff"/><path d="M 215.008 204.561 L 147.302 204.561 L 128.386 270.436 L 111.085 204.561 L 42.634 204.561 L 15.204 374.066 L 22.001 374.066 L 82.746 374.066 L 88.768 313.488 L 107.38 374.066 L 149.378 374.066 L 169.647 311.213 L 175.277 374.066 L 242.89 374.066 Z" fill="#fff"/><path d="M 410.376 513.885 L 310.652 575.975 L 346.402 466.844 L 251.384 395.343 L 369.923 395.343 L 410.376 275.859 L 450.829 395.343 L 569.368 395.343 L 474.35 466.844 L 510.1 575.975 L 410.376 513.885" fill="#d3b21b"/><path d="M 22 368.284 h 55.51 l 6.704 -67.448 c .626 -6.284 1.045 -12.778 1.465 -19.06 h 1.883 c .42 6.699 1.888 12.983 3.563 19.69 l 20.528 66.818 h 33.514 l 22.831 -70.799 c 1.678 -5.029 2.724 -10.473 3.771 -15.71 h 1.048 l 7.749 86.508 h 55.51 L 210.1 210.344 h -58.441 l -17.805 62.001 c -1.885 6.707 -2.928 14.036 -3.978 20.948 h -1.465 l -21.786 -82.949 H 47.557 L 22 368.284"/><path d="M 343.766 210.025 l -20.943 71.849 c -2.306 7.749 -3.982 15.501 -3.982 23.458 h -1.258 c 0 -7.957 -1.675 -15.709 -3.981 -23.458 l -20.946 -71.849 h -59.909 l 61.164 157.939 h 48.598 l 61.166 -157.939 H 343.766"/><path d="M 528.092 210.025 l -20.948 71.849 c -2.303 7.749 -3.979 15.501 -3.979 23.458 h -1.258 c 0 -7.957 -1.676 -15.709 -3.979 -23.458 l -20.945 -71.849 h -59.906 l 61.164 157.939 h 48.595 L 588 210.025 H 528.092"/></svg>
